src/main/resources/icons/NodeJSIcons/com/jetbrains/nodejs/icons/v8_ToolWin.svg

<svg xmlns="http://www.w3.org/2000/svg" width="13" height="13" viewBox="0 0 13 13">
  <g fill="none" fill-rule="evenodd">
    <path fill="#6E6E6E" fill-rule="nonzero" d="M10.8950879,4.1745594 L10.5801716,4.83994705 L11.4792068,4.83994705 L11.5249204,4.76375762 L11.8550746,4.1745594 L10.8849293,4.1745594 L10.8950879,4.1745594 Z M2.09266956,4.1745594 L1.14284138,4.1745594 L1.52378851,4.83994705 L2.41266514,4.83994705 L2.09266956,4.1745594 Z"/>
    <path fill="#6E6E6E" fill-rule="nonzero" d="M3.6633639,2.70923861 C3.64226203,2.80911241 3.62681665,2.91095666 3.61736067,3.01445764 C3.61150012,3.09845956 3.60563958,3.18246149 3.60563958,3.27206354 C3.60563958,3.87127728 3.80489811,4.43129012 4.14480972,4.88490051 C3.67753005,5.24539036 3.30119159,5.71075975 3.05937853,6.24593712 L2.01140083,4.25074882 L1.18347574,4.25074882 L0,2.18347574 L3.39804838,2.18347574 L3.6633639,2.70923861 Z M5.76225433,11.1814879 C6.00132245,11.2275819 6.24861581,11.2522465 6.50074882,11.2522465 C6.7530049,11.2522465 7.00041659,11.2275578 7.23959337,11.1814204 L6.50149765,12.5249204 L5.76225433,11.1814879 Z M9.94351564,6.23848452 C9.70104386,5.70566432 9.32858472,5.23883098 8.86254847,4.87930039 C9.20246009,4.42568999 9.40171862,3.87127728 9.40171862,3.26646341 C9.40171862,3.18246149 9.39585807,3.09845956 9.38999753,3.01445764 C9.37828176,2.89179752 9.35819823,2.77146425 9.33029721,2.65398001 L9.59986762,2.17839645 L13.0029953,2.18347574 L11.8195196,4.25074882 L10.9915945,4.25074882 L9.94351564,6.23848452 Z"/>
    <path fill="#6E6E6E" fill-rule="nonzero" d="M9.67097775,6.76499987 C9.50336101,6.04881927 9.10209671,5.41898668 8.54845355,4.97200872 C8.84305266,4.56058582 9.01574869,4.05773561 9.01574869,3.50917175 C9.01574869,3.43298232 9.01066939,3.3567929 9.0055901,3.28060347 C8.88876631,2.00062112 7.81195577,1 6.50149765,1 C5.19103953,1 4.11422898,2.00062112 4.00248449,3.28060347 C3.99740519,3.3567929 3.9923259,3.43298232 3.9923259,3.51425104 C3.9923259,4.05773561 4.16502193,4.56566512 4.45962104,4.97708801 C3.90597788,5.42406598 3.49963428,6.04881927 3.33709684,6.77007916 C3.28122459,7.00372673 3.25074882,7.24753289 3.25074882,7.50149765 C3.25074882,8.8779866 4.10914968,10.0563831 5.3180219,10.5287575 C5.68373115,10.6709777 6.08499545,10.7522465 6.50149765,10.7522465 C6.91799984,10.7522465 7.31926415,10.6709777 7.68497339,10.5287575 C8.89384561,10.0563831 9.75224647,8.8779866 9.75224647,7.50149765 C9.75224647,7.24753289 9.7217707,7.00372673 9.67097775,6.76499987 Z M6.50149765,2.62537441 C7.07037869,2.62537441 7.53767383,3.08759026 7.53767383,3.6615506 C7.53767383,4.23551094 7.07545799,4.69772679 6.50149765,4.69772679 C5.9326166,4.69772679 5.46532146,4.23551094 5.46532146,3.6615506 C5.46532146,3.08759026 5.9326166,2.62537441 6.50149765,2.62537441 Z M6.50149765,8.68497339 C5.85134788,8.68497339 5.3180219,8.15672671 5.3180219,7.50149765 C5.3180219,7.12055052 5.49579723,6.78531705 5.77515846,6.56690736 C5.97325096,6.40944921 6.22721571,6.3180219 6.50149765,6.3180219 C6.77577958,6.3180219 7.02974433,6.40944921 7.22783684,6.56690736 C7.50719806,6.78531705 7.68497339,7.12055052 7.68497339,7.50149765 C7.68497339,8.15672671 7.15672671,8.68497339 6.50149765,8.68497339 Z"/>
  </g>
</svg>

<svg xmlns="http://www.w3.org/2000/svg" width="13" height="13" viewBox="0 0 13 13"><rect id="frame" width="13" height="13" fill="none"/><g fill="#6E6E6E" fill-rule="nonzero"><path d="M10.895 4.175l-.315.665h.9l.045-.076.33-.59h-.97.01zm-8.802 0h-.95l.38.665h.89l-.32-.665z"/><path d="M3.663 2.71a2.636 2.636 0 0 0-.057.562c0 .6.199 1.16.539 1.613-.467.36-.844.826-1.086 1.36L2.011 4.252h-.828L0 2.183h3.398l.265.526zm2.1 8.471a3.901 3.901 0 0 0 1.477 0L6.5 12.525l-.739-1.344zm4.18-4.943c-.242-.532-.614-1-1.08-1.359.34-.453.539-1.008.539-1.613 0-.084-.006-.168-.012-.252a2.65 2.65 0 0 0-.06-.36l.27-.476 3.403.005-1.183 2.068h-.828L9.944 6.238z"/><path d="M9.671 6.765a3.261 3.261 0 0 0-1.123-1.793c.295-.411.468-.914.468-1.463 0-.076-.005-.152-.01-.228a2.513 2.513 0 0 0-5.004 0c-.005.076-.01.152-.01.233 0 .544.173 1.052.468 1.463A3.216 3.216 0 0 0 3.337 6.77a3.135 3.135 0 0 0-.086.731 3.252 3.252 0 0 0 4.434 3.028A3.252 3.252 0 0 0 9.752 7.5c0-.253-.03-.497-.081-.736zm-3.17-4.14a1.037 1.037 0 0 1 0 2.073 1.037 1.037 0 0 1 0-2.073zm0 6.06a1.185 1.185 0 0 1 0-2.367 1.18 1.18 0 0 1 1.183 1.183c.001.656-.527 1.184-1.183 1.184z"/></g></svg>
